svg/u1f60e.svg

<svg viewBox="0 0 128 128" xmlns="http://www.w3.org/2000/svg">
  <g id="gold">
    <radialGradient id="face_1_" cx="63.6" cy="3176.8999" gradientTransform="matrix(1 0 0 1 0 -3114)" gradientUnits="userSpaceOnUse" r="56.9597">
      <stop offset="0.5" stop-color="#FDE030"/>
      <stop offset="0.92" stop-color="#F7C02B"/>
      <stop offset="1" stop-color="#F4A223"/>
    </radialGradient>
    <path id="face" d="M63.6,118.8c-27.9,0-58-17.5-58-55.9S35.7,7,63.6,7c15.5,0,29.8,5.1,40.4,14.4 c11.5,10.2,17.6,24.6,17.6,41.5s-6.1,31.2-17.6,41.4C93.4,113.6,79,118.8,63.6,118.8z" fill="url(#face_1_)"/>
    <path d="M111.49,29.67c5.33,8.6,8.11,18.84,8.11,30.23c0,16.9-6.1,31.2-17.6,41.4 c-10.6,9.3-25,14.5-40.4,14.5c-18.06,0-37-7.35-48.18-22.94c10.76,17.66,31,25.94,50.18,25.94c15.4,0,29.8-5.2,40.4-14.5 c11.5-10.2,17.6-24.5,17.6-41.4C121.6,50.16,118.13,38.84,111.49,29.67z" fill="#EB8F00"/>
  </g>
  <g id="facial_expressions">
    <g id="smiling-face-with-sunglasses">
      <path id="mouth" d="M64,93.81c-11.51,0-19.73-6-22.2-9.74c-0.93-1.21-1.12-2.83-0.5-4.22 c0.47-0.89,1.4-1.44,2.41-1.41c0.37,0,0.74,0.06,1.09,0.17c6.23,1.88,12.7,2.82,19.2,2.78c6.5,0.04,12.98-0.9,19.2-2.78 c0.35-0.11,0.72-0.17,1.09-0.17c1.01-0.03,1.94,0.52,2.41,1.41c0.62,1.39,0.43,3.01-0.5,4.22C83.73,87.83,75.51,93.81,64,93.81z" fill="#422B0D"/>
      <g id="eyes">
        <path d="M124,45.42c0,0-4.26,0.09-4.26,3.5c0,8.42,0.1,26.49-22,26.49c-17.66,0-26.09-9.12-27.51-19.19 c-0.58-4.19-2-8.75-6.27-8.75s-5.65,4.53-6.23,8.75c-1.42,10.07-9.85,19.19-27.51,19.19c-22.06,0-22-18.07-22-26.49 c0-3.41-4.26-3.5-4.26-3.5v-8.34c6.85-0.9,13.75-1.32,20.65-1.26c12.48,0,17.45,0,27.38,1c5.87,0.58,12,0.65,12,0.65 s6.1-0.07,12-0.65c9.93-1,14.9-1,27.38-1c6.9-0.06,13.79,0.37,20.63,1.26V45.42z" fill="#422B0D"/>
        <path d="M21.12,52c-0.1,1.6-0.74,3.08-2.31,3.38c-0.18,0.03-0.35,0.05-0.53,0.05 c-1.41-0.01-2.62-1.03-2.84-2.43c-0.61-2.76,0.06-5.65,1.82-7.86c1.62-1.96,4.04-3.09,6.58-3.08c1.51-0.14,2.85,0.97,2.99,2.48 c0,0.03,0.01,0.06,0.01,0.1c0,1.88-1.5,2.68-3,3.2C22.2,48.58,21.14,50.2,21.12,52z" fill="#896024"/>
        <path d="M84.7,52c-0.09,1.6-0.74,3.08-2.3,3.38c-0.18,0.03-0.36,0.05-0.54,0.05 c-1.42,0-2.63-1.03-2.86-2.43c-0.61-2.76,0.06-5.65,1.82-7.86c1.63-1.96,4.04-3.09,6.59-3.08c1.51-0.14,2.85,0.97,2.99,2.48 c0,0.03,0.01,0.06,0.01,0.1c0,1.88-1.5,2.68-3,3.2C85.78,48.58,84.72,50.2,84.7,52z" fill="#896024"/>
      </g>
    </g>
  </g>
</svg>

<svg viewBox="0 0 128 128" xmlns="http://www.w3.org/2000/svg">
  <defs>
    <radialGradient id="face_1_" cx="63.6" cy="62.8999" gradientUnits="userSpaceOnUse" r="56.9597">
      <stop offset="0.5" stop-color="#FDE030"/>
      <stop offset="0.92" stop-color="#F7C02B"/>
      <stop offset="1" stop-color="#F4A223"/>
    </radialGradient>
  </defs>
  <path id="face" d="M63.6,118.8 C35.7,118.8 5.6,101.3 5.6,62.9 C5.6,24.5 35.7,7 63.6,7 C79.1,7 93.4,12.1 104,21.4 C115.5,31.6 121.6,46 121.6,62.9 C121.6,79.8 115.5,94.1 104,104.3 C93.4,113.6 79,118.8 63.6,118.8 Z" fill="url(#face_1_)"/>
  <path d="M111.49,29.67 C116.82,38.27 119.6,48.51 119.6,59.9 C119.6,76.8 113.5,91.1 102,101.3 C91.4,110.6 77,115.8 61.6,115.8 C43.54,115.8 24.6,108.45 13.42,92.86 C24.18,110.52 44.42,118.8 63.6,118.8 C79,118.8 93.4,113.6 104,104.3 C115.5,94.1 121.6,79.8 121.6,62.9 C121.6,50.16 118.13,38.84 111.49,29.67 Z" fill="#EB8F00"/>
  <path id="mouth" d="M64,93.81 C52.49,93.81 44.27,87.81 41.8,84.07 C40.87,82.86 40.68,81.24 41.3,79.85 C41.77,78.96 42.7,78.41 43.71,78.44 C44.08,78.44 44.45,78.5 44.8,78.61 C51.03,80.49 57.5,81.43 64,81.39 C70.5,81.43 76.98,80.49 83.2,78.61 C83.55,78.5 83.92,78.44 84.29,78.44 C85.3,78.41 86.23,78.96 86.7,79.85 C87.32,81.24 87.13,82.86 86.2,84.07 C83.73,87.83 75.51,93.81 64,93.81 Z" fill="#422B0D"/>
  <path d="M124,45.42 C124,45.42 119.74,45.51 119.74,48.92 C119.74,57.34 119.84,75.41 97.74,75.41 C80.08,75.41 71.65,66.29 70.23,56.22 C69.65,52.03 68.23,47.47 63.96,47.47 C59.69,47.47 58.31,52 57.73,56.22 C56.31,66.29 47.88,75.41 30.22,75.41 C8.16,75.41 8.22,57.34 8.22,48.92 C8.22,45.51 3.96,45.42 3.96,45.42 L3.96,37.08 C10.81,36.18 17.71,35.76 24.61,35.82 C37.09,35.82 42.06,35.82 51.99,36.82 C57.86,37.4 63.99,37.47 63.99,37.47 C63.99,37.47 70.09,37.4 75.99,36.82 C85.92,35.82 90.89,35.82 103.37,35.82 C110.27,35.76 117.16,36.19 124,37.08 L124,45.42 Z" fill="#422B0D"/>
  <path d="M21.12,52 C21.02,53.6 20.38,55.08 18.81,55.38 C18.63,55.41 18.46,55.43 18.28,55.43 C16.87,55.42 15.66,54.4 15.44,53 C14.83,50.24 15.5,47.35 17.26,45.14 C18.88,43.18 21.3,42.05 23.84,42.06 C25.35,41.92 26.69,43.03 26.83,44.54 C26.83,44.57 26.84,44.6 26.84,44.64 C26.84,46.52 25.34,47.32 23.84,47.84 C22.2,48.58 21.14,50.2 21.12,52 Z" fill="#896024"/>
  <path d="M84.7,52 C84.61,53.6 83.96,55.08 82.4,55.38 C82.22,55.41 82.04,55.43 81.86,55.43 C80.44,55.43 79.23,54.4 79,53 C78.39,50.24 79.06,47.35 80.82,45.14 C82.45,43.18 84.86,42.05 87.41,42.06 C88.92,41.92 90.26,43.03 90.4,44.54 C90.4,44.57 90.41,44.6 90.41,44.64 C90.41,46.52 88.91,47.32 87.41,47.84 C85.78,48.58 84.72,50.2 84.7,52 Z" fill="#896024"/>
</svg>
